svgs/sharp-solid/user-chef.svg

<svg xmlns="http://www.w3.org/2000/svg" viewBox="0 0 448 512"><!--! Font Awesome Pro 6.6.0 by @fontawesome - https://fontawesome.com License - https://fontawesome.com/license (Commercial License) Copyright 2024 Fonticons, Inc. --><path d="M384 48c0 20.9-13.4 38.7-32 45.3l0 18.7 0 64c0 70.7-57.3 128-128 128s-128-57.3-128-128l0-64 0-18.7C77.4 86.7 64 68.9 64 48C64 21.5 85.5 0 112 0c14.3 0 27.2 6.3 36 16.3C156.8 6.3 169.7 0 184 0c16.7 0 31.4 8.5 40 21.5C232.6 8.5 247.3 0 264 0c14.3 0 27.2 6.3 36 16.3C308.8 6.3 321.7 0 336 0c26.5 0 48 21.5 48 48zM304 176l0-16-160 0 0 16c0 44.2 35.8 80 80 80s80-35.8 80-80zM128 410.8l224-89.6 0 30.8 48 0 48 160-96 0-224 0 0-101.2zM96 400l0 112L0 512 48 352l48 0 0-32 106.4 26.6-96.4 38.5-10.1 4L96 400zm128 32a16 16 0 1 0 -32 0 16 16 0 1 0 32 0zm80 16a16 16 0 1 0 0-32 16 16 0 1 0 0 32z"/></svg>

<svg xmlns="http://www.w3.org/2000/svg" viewBox="0 0 448 512"><!--! Font Awesome Pro 6.4.2 by @fontawesome - https://fontawesome.com License - https://fontawesome.com/license (Commercial License) Copyright 2023 Fonticons, Inc. --><path d="M384 48c0 20.9-13.4 38.7-32 45.3V112v64c0 70.7-57.3 128-128 128s-128-57.3-128-128V112 93.3C77.4 86.7 64 68.9 64 48C64 21.5 85.5 0 112 0c14.3 0 27.2 6.3 36 16.3C156.8 6.3 169.7 0 184 0c16.7 0 31.4 8.5 40 21.5C232.6 8.5 247.3 0 264 0c14.3 0 27.2 6.3 36 16.3C308.8 6.3 321.7 0 336 0c26.5 0 48 21.5 48 48zM304 176V160H144v16c0 44.2 35.8 80 80 80s80-35.8 80-80zM128 410.8l224-89.6V352h48l48 160H352 128V410.8zM96 400V512H0L48 352H96V320l106.4 26.6-96.4 38.5-10.1 4V400zm128 32a16 16 0 1 0 -32 0 16 16 0 1 0 32 0zm80 16a16 16 0 1 0 0-32 16 16 0 1 0 0 32z"/></svg>
